contributed-vectors/happylighting.svg

<?xml version="1.0" encoding="UTF-8" standalone="no"?>
<svg
   xmlns:dc="http://purl.org/dc/elements/1.1/"
   xmlns:cc="http://creativecommons.org/ns#"
   xmlns:rdf="http://www.w3.org/1999/02/22-rdf-syntax-ns#"
   xmlns:svg="http://www.w3.org/2000/svg"
   xmlns="http://www.w3.org/2000/svg"
   xmlns:sodipodi="http://sodipodi.sourceforge.net/DTD/sodipodi-0.dtd"
   xmlns:inkscape="http://www.inkscape.org/namespaces/inkscape"
   viewBox="0 0 192 192"
   version="1.1"
   id="svg16"
   sodipodi:docname="happylighting.svg"
   inkscape:version="0.92.4 (5da689c313, 2019-01-14)">
  <metadata
     id="metadata20">
    <rdf:RDF>
      <cc:Work
         rdf:about="">
        <dc:format>image/svg+xml</dc:format>
        <dc:type
           rdf:resource="http://purl.org/dc/dcmitype/StillImage" />
        <dc:title></dc:title>
      </cc:Work>
    </rdf:RDF>
  </metadata>
  <sodipodi:namedview
     pagecolor="#ffffff"
     bordercolor="#666666"
     borderopacity="1"
     objecttolerance="10"
     gridtolerance="10"
     guidetolerance="10"
     inkscape:pageopacity="0"
     inkscape:pageshadow="2"
     inkscape:window-width="1920"
     inkscape:window-height="1017"
     id="namedview18"
     showgrid="true"
     inkscape:zoom="4.9166667"
     inkscape:cx="94.514242"
     inkscape:cy="98.031846"
     inkscape:window-x="-8"
     inkscape:window-y="-8"
     inkscape:window-maximized="1"
     inkscape:current-layer="svg16"
     showguides="true"
     inkscape:guide-bbox="true"
     inkscape:snap-global="false">
    <inkscape:grid
       type="xygrid"
       id="grid827"
       spacingx="4"
       spacingy="4" />
  </sodipodi:namedview>
  <defs
     id="defs4">
    <style
       id="style2">.a{fill:none;stroke:#b1b5bd;stroke-linecap:round;stroke-linejoin:round;isolation:isolate;opacity:0.63;}</style>
  </defs>
  <path
     style="fill:#728dbe;stroke:none;stroke-width:1px;stroke-linecap:butt;stroke-linejoin:miter;stroke-opacity:1"
     d="M 8.3378906 89.255859 A 88 88 0 0 0 8 96 A 88 88 0 0 0 33.8125 158.1875 L 96 96 L 8.3378906 89.255859 z "
     id="path839-7-5-5-8" />
  <path
     style="fill:#8c72bd;stroke:none;stroke-width:1px;stroke-linecap:butt;stroke-linejoin:miter;stroke-opacity:1"
     d="M 33.8125 33.8125 A 88 88 0 0 0 8 96 L 96 96 L 33.8125 33.8125 z "
     id="path839-7-5-5" />
  <path
     style="fill:#ff837d;stroke:none;stroke-width:1px;stroke-linecap:butt;stroke-linejoin:miter;stroke-opacity:1"
     d="M 96 8 A 88 88 0 0 0 33.8125 33.8125 L 96 96 L 102.74414 8.3378906 A 88 88 0 0 0 96 8 z "
     id="path839" />
  <path
     style="fill:#f8c18c;stroke:none;stroke-width:1px;stroke-linecap:butt;stroke-linejoin:miter;stroke-opacity:1"
     d="M 96 8 L 96 96 L 158.1875 33.8125 A 88 88 0 0 0 96 8 z "
     id="path839-7" />
  <path
     style="fill:#f9de81;stroke:none;stroke-width:1px;stroke-linecap:butt;stroke-linejoin:miter;stroke-opacity:1"
     d="M 158.1875 33.8125 L 96 96 L 183.66211 102.74414 A 88 88 0 0 0 184 96 A 88 88 0 0 0 158.1875 33.8125 z "
     id="path839-7-5" />
  <path
     style="fill:#98dc9a;stroke:none;stroke-width:1px;stroke-linecap:butt;stroke-linejoin:miter;stroke-opacity:1"
     d="M 96 96 L 158.1875 158.1875 A 88 88 0 0 0 184 96 L 96 96 z "
     id="path839-6" />
  <path
     style="fill:#96dfd3;stroke:none;stroke-width:1px;stroke-linecap:butt;stroke-linejoin:miter;stroke-opacity:1"
     d="M 96 96 L 89.255859 183.66211 A 88 88 0 0 0 96 184 A 88 88 0 0 0 158.1875 158.1875 L 96 96 z "
     id="path839-6-4-6" />
  <path
     style="fill:#9abeff;stroke:none;stroke-width:1px;stroke-linecap:butt;stroke-linejoin:miter;stroke-opacity:1"
     d="M 96 96 L 33.8125 158.1875 A 88 88 0 0 0 96 184 L 96 96 z "
     id="path839-6-4" />
  <circle
     class="a"
     cx="96"
     cy="100"
     r="36.5"
     id="circle10"
     style="opacity:0.62999998;isolation:isolate;fill:none;stroke:#b1b5bd;stroke-linecap:round;stroke-linejoin:round" />
  <rect
     style="opacity:1;vector-effect:none;fill:#54688c;fill-opacity:1;fill-rule:evenodd;stroke:none;stroke-width:20;stroke-linecap:round;stroke-linejoin:round;stroke-miterlimit:4;stroke-dasharray:none;stroke-opacity:1;paint-order:stroke fill markers"
     id="rect818"
     width="152"
     height="152"
     x="20"
     y="20"
     ry="76" />
  <rect
     style="opacity:1;vector-effect:none;fill:#ffffff;fill-opacity:1;fill-rule:evenodd;stroke:none;stroke-width:20;stroke-linecap:round;stroke-linejoin:round;stroke-miterlimit:4;stroke-dasharray:none;stroke-opacity:1;paint-order:stroke fill markers"
     id="rect969"
     width="16"
     height="4"
     x="88"
     y="132" />
  <rect
     style="opacity:1;vector-effect:none;fill:#ffffff;fill-opacity:1;fill-rule:evenodd;stroke:none;stroke-width:20;stroke-linecap:round;stroke-linejoin:round;stroke-miterlimit:4;stroke-dasharray:none;stroke-opacity:1;paint-order:stroke fill markers"
     id="rect971"
     width="24"
     height="4"
     x="84"
     y="124" />
  <rect
     style="opacity:1;vector-effect:none;fill:#ffffff;fill-opacity:1;fill-rule:evenodd;stroke:none;stroke-width:20;stroke-linecap:round;stroke-linejoin:round;stroke-miterlimit:4;stroke-dasharray:none;stroke-opacity:1;paint-order:stroke fill markers"
     id="rect973"
     width="8"
     height="16"
     x="92"
     y="100" />
  <path
     style="fill:none;stroke:#ffffff;stroke-width:8;stroke-linecap:round;stroke-linejoin:round;stroke-miterlimit:4;stroke-dasharray:none;stroke-opacity:1"
     d="m 84,116 h 24 c 0,-20 12,-21.639561 12,-36 0,-12 -8,-24 -24,-24 -16,0 -24,12 -24,24 0,14.360439 12,16 12,36 z"
     id="path975"
     inkscape:connector-curvature="0"
     sodipodi:nodetypes="ccszsc" />
  <polyline
     transform="matrix(0.36192681,0,0,0.36192681,89.332995,68.965099)"
     points="0.103 8.76 37.076 45.733 21.725 61.083 21.725 0.777"
     style="fill:none;stroke:#ffffff;stroke-width:7;stroke-linecap:round;stroke-linejoin:round"
     id="polyline979" />
  <polyline
     transform="matrix(0.36192681,0,0,-0.36192681,89.332995,91.353886)"
     points="0.103 8.76 37.076 45.733 21.725 61.083 21.725 0.777"
     style="fill:none;stroke:#ffffff;stroke-width:7;stroke-linecap:round;stroke-linejoin:round"
     id="polyline981" />
</svg>

<svg xmlns="http://www.w3.org/2000/svg" viewBox="0 0 192 192"><path d="M8.338 89.256A88 88 0 0 0 8 96a88 88 0 0 0 25.813 62.188L96 96 8.338 89.256z" style="fill:#728dbe;stroke:none;stroke-width:1px;stroke-linecap:butt;stroke-linejoin:miter;stroke-opacity:1"/><path d="M33.813 33.813A88 88 0 0 0 8 96h88L33.812 33.812z" style="fill:#8c72bd;stroke:none;stroke-width:1px;stroke-linecap:butt;stroke-linejoin:miter;stroke-opacity:1"/><path d="M96 8a88 88 0 0 0-62.188 25.813L96 96l6.744-87.662A88 88 0 0 0 96 8z" style="fill:#ff837d;stroke:none;stroke-width:1px;stroke-linecap:butt;stroke-linejoin:miter;stroke-opacity:1"/><path d="M96 8v88l62.188-62.188A88 88 0 0 0 96 8z" style="fill:#f8c18c;stroke:none;stroke-width:1px;stroke-linecap:butt;stroke-linejoin:miter;stroke-opacity:1"/><path d="M158.188 33.813 96 96l87.662 6.744A88 88 0 0 0 184 96a88 88 0 0 0-25.813-62.188z" style="fill:#f9de81;stroke:none;stroke-width:1px;stroke-linecap:butt;stroke-linejoin:miter;stroke-opacity:1"/><path d="m96 96 62.188 62.188A88 88 0 0 0 184 96H96z" style="fill:#98dc9a;stroke:none;stroke-width:1px;stroke-linecap:butt;stroke-linejoin:miter;stroke-opacity:1"/><path d="m96 96-6.744 87.662A88 88 0 0 0 96 184a88 88 0 0 0 62.188-25.813L96 96z" style="fill:#96dfd3;stroke:none;stroke-width:1px;stroke-linecap:butt;stroke-linejoin:miter;stroke-opacity:1"/><path d="m96 96-62.188 62.188A88 88 0 0 0 96 184V96z" style="fill:#9abeff;stroke:none;stroke-width:1px;stroke-linecap:butt;stroke-linejoin:miter;stroke-opacity:1"/><circle cx="96" cy="100" r="36.5" style="opacity:.62999998;isolation:isolate;fill:none;stroke:#b1b5bd;stroke-linecap:round;stroke-linejoin:round"/><rect width="152" height="152" x="20" y="20" ry="76" style="opacity:1;vector-effect:none;fill:#54688c;fill-opacity:1;fill-rule:evenodd;stroke:none;stroke-width:20;stroke-linecap:round;stroke-linejoin:round;stroke-miterlimit:4;stroke-dasharray:none;stroke-opacity:1;paint-order:stroke fill markers"/><path d="M88 132h16v4H88zM84 124h24v4H84zM92 100h8v16h-8z" style="opacity:1;vector-effect:none;fill:#fff;fill-opacity:1;fill-rule:evenodd;stroke:none;stroke-width:20;stroke-linecap:round;stroke-linejoin:round;stroke-miterlimit:4;stroke-dasharray:none;stroke-opacity:1;paint-order:stroke fill markers"/><path d="M84 116h24c0-20 12-21.64 12-36 0-12-8-24-24-24S72 68 72 80c0 14.36 12 16 12 36z" style="fill:none;stroke:#fff;stroke-width:8;stroke-linecap:round;stroke-linejoin:round;stroke-miterlimit:4;stroke-dasharray:none;stroke-opacity:1"/><path d="m.103 8.76 36.973 36.973-15.351 15.35V.777" style="fill:none;stroke:#fff;stroke-width:7;stroke-linecap:round;stroke-linejoin:round" transform="matrix(.36193 0 0 .36193 89.333 68.965)"/><path d="m.103 8.76 36.973 36.973-15.351 15.35V.777" style="fill:none;stroke:#fff;stroke-width:7;stroke-linecap:round;stroke-linejoin:round" transform="matrix(.36193 0 0 -.36193 89.333 91.354)"/></svg>
